X:183
M:4/4
L:1/8
K:D
| FBB2 FBde | faef dcBA | FAA2 FAEA | EAA2 eAcA | 
| fBB2 fBce | f/g/f bg aged | fBB2 FBbf | e/f/e cA eAce | 
fBB2 fBce | f/g/f bg aged | f/g/f ef dfcf | FBBA B2B2 :|| 

